X: 38354
T: Stan Chapman's
R: jig
M: 6/8
K: Amajor
~E3 EFA|~B3 Bce|fea fec|ecA BAF|
~E3 EFA|~B3 Bce|fea fec|ecA A3:|
e3 ece|~f3 fga|ecA ~B3|cAE Eaf|
e3 ece|~f3 fga|ecA ~B3|1 cAA Aaf:|2 cAA A3||

